X: 27637
T: Moonlight Clog
R: hornpipe
M: 4/4
K: Gmajor
|:Bc|dBGB d2~e2|ecAc egfe|dfab c'afa|(3gfa (3gfe dcBc|
dBGB d2~e2|ecAc ef (3gfe|dfab (3c'ba fd|g2g2 g2:|
|:Bc|db (3gbg d2>^d2|e2c'2 (3ac'a e2>g2|f2df bfaf|(3gag fe dcBc|
db (3gbg d2>^d2|ec' (3ac'a e2>g2|f2df bfaf|g2g2g2:|
|:a^g|a2 [d2f2][d2f2] ef|Tg2Tf2 Te2Td2|^cdef Tg2 (3Ace|defg a2>b2|
a2[d2f2][d2f2]ef|Tg2Tf2 Te2Td2|^cdef gece|1 d2d^cd2:|2 d4=c4||
|:BcdB G4|ABcA E4|DFAB c2AF|GABc d4|
BcdB G4|ABcA E4|DFAB cAFA|1 G2B2 G4:|2 G2B2 G2||

